X: 1
T: Nollaig Casey's
M: 4/4
L: 1/8
R: reel
K: Gmaj
&quot;G&quot;G3B dB ~B2|dege dBGB|&quot;D&quot;cBAG FD ~D2|FEFG AGFE|
&quot;C&quot;EDEF EC ~C2|&quot;Am&quot;EFGF EC ~C2|&quot;Em&quot;B,EEB, EFGA|1B2 AB GFED:|2B2 AB GABd||
|:&quot;G&quot;g3a bg ~g2|dg ~g2 bgag|&quot;D&quot;fdAG FD ~D2|FEFG ABcd|
&quot;C&quot;edef ec ~c2|&quot;Am&quot;efgf ec ~c2|&quot;Em&quot;B2 AF GABc|1&quot;D&quot;d2 d^c defd:|2&quot;D&quot;d2 ge dBAB||
